dist/icons/svgs/file-circle-check-solid.svg

<svg xmlns="http://www.w3.org/2000/svg" width="24" height="24" fill="currentcolor" class="icon-file-circle-check-solid" viewBox="0 0 24 24">
  <path d="M1.25 4.5C1.25 3.13281 2.34375 2 3.75 2H10V7C10 7.70312 10.5469 8.25 11.25 8.25H16.25V9.77344C13.3594 10.5938 11.25 13.25 11.25 16.375C11.25 18.7188 12.3828 20.75 14.1016 22C13.9844 22 13.8672 22 13.75 22H3.75C2.34375 22 1.25 20.9062 1.25 19.5V4.5ZM16.25 7H11.25V2L16.25 7ZM12.5 16.375C12.5 14.3828 13.5547 12.5469 15.3125 11.5312C17.0312 10.5156 19.1797 10.5156 20.9375 11.5312C22.6562 12.5469 23.75 14.3828 23.75 16.375C23.75 18.4062 22.6562 20.2422 20.9375 21.2578C19.1797 22.2734 17.0312 22.2734 15.3125 21.2578C13.5547 20.2422 12.5 18.4062 12.5 16.375ZM20.7422 14.6953C20.5078 14.4609 20.0781 14.4609 19.8438 14.6953L17.5 17.0781L16.3672 15.9453C16.1328 15.7109 15.7031 15.7109 15.4688 15.9453C15.2344 16.1797 15.2344 16.6094 15.4688 16.8438L17.0312 18.4062C17.2656 18.6406 17.6953 18.6406 17.9297 18.4062L20.7422 15.5938C20.9766 15.3594 20.9766 14.9297 20.7422 14.6953Z"/>
</svg>

<svg xmlns="http://www.w3.org/2000/svg" width="24" height="24" fill="currentColor" class="icon-file-circle-check-solid" viewBox="0 0 24 24">
  <path d="M1.25 4.5c0-1.367 1.094-2.5 2.5-2.5H10v5c0 .703.547 1.25 1.25 1.25h5v1.523c-2.89.82-5 3.477-5 6.602A6.92 6.92 0 0 0 14.102 22H3.75a2.47 2.47 0 0 1-2.5-2.5zm15 2.5h-5V2zm-3.75 9.375a5.58 5.58 0 0 1 2.813-4.844c1.718-1.015 3.867-1.015 5.624 0 1.72 1.016 2.813 2.852 2.813 4.844 0 2.031-1.094 3.867-2.812 4.883-1.758 1.015-3.907 1.015-5.625 0a5.6 5.6 0 0 1-2.813-4.883m8.242-1.68a.66.66 0 0 0-.898 0L17.5 17.078l-1.133-1.133a.66.66 0 0 0-.898 0 .66.66 0 0 0 0 .899l1.562 1.562a.66.66 0 0 0 .899 0l2.812-2.812a.66.66 0 0 0 0-.899"/>
</svg>
